flags/transnistria.svg

<svg width="512" height="512" viewBox="0 0 512 512" fill="none" xmlns="http://www.w3.org/2000/svg">
<rect width="512" height="512" fill="var(--flag-palette-bright-red, #d80027)"/>
<path d="M0 192H512V320H0V192Z" fill="var(--flag-palette-green, #6da544)"/>
<path fill-rule="evenodd" clip-rule="evenodd" d="M104.442 83.0429C111.764 86.2464 117.833 91.7637 121.718 98.7485C128.651 110.724 128.502 124.469 122.083 132.88L96.9816 107.779L108.368 96.3926L91.092 94.0368L71.8528 113.276L81.6687 123.092L89.9141 114.847L114.141 139.073C105.758 142.71 95.0978 140.086 86.773 132.123L64 152.933L71.0675 160L87.5583 141.939C98.0771 151.289 112.075 153.681 122.648 147.58L135.067 160L142.135 152.933L130.202 141C137.917 131.003 138.561 115.327 130.748 101.89C128.06 96.9742 124.3 92.7276 119.745 89.4648C115.191 86.2021 109.96 84.0071 104.442 83.0429ZM87.5583 80.6871L103.264 69.1697L118.969 80.6871L112.96 62.059L128.785 50.454H109.217L103.264 32L97.3109 50.454H77.7423L93.5674 62.059L87.5583 80.6871ZM103.264 63.4721L96.589 68.5153L99.1542 60.3671L92.2699 55.1656H100.792L103.264 47.3129L105.736 55.1656H114.258L107.373 60.3671L109.939 68.5153L103.264 63.4721Z" fill="var(--flag-palette-yellow, #ffda44)"/>
</svg>

<svg xmlns="http://www.w3.org/2000/svg" width="512" height="512" fill="none"><g clip-path="url(#a)"><path fill="var(--flag-palette-bright-red, #d80027)" d="M0 0h512v512H0z"/><path fill="var(--flag-palette-green, #6da544)" d="M0 192h512v128H0z"/><path fill="var(--flag-palette-yellow, #ffda44)" fill-rule="evenodd" d="M104.4 83a37 37 0 0 1 17.3 15.7c7 12 6.8 25.8.4 34.2L97 107.8l11.4-11.4L91 94l-19.2 19.3 9.8 9.8 8.2-8.3 24.2 24.3c-8.3 3.6-19 1-27.3-7L64 153l7 7.1 16.6-18c10.5 9.3 24.5 11.7 35 5.6l12.5 12.4 7-7-11.9-12c7.7-10 8.4-25.7.5-39.1a37 37 0 0 0-26.3-19m-16.8-2.3 15.7-11.5L119 80.7 113 62l15.8-11.6h-19.6l-6-18.5-5.9 18.5H77.7L93.6 62zm15.7-17.2-6.7 5 2.6-8.1-7-5.2h8.6l2.5-7.9 2.4 7.9h8.6l-7 5.2 2.6 8.1z" clip-rule="evenodd"/></g><defs><clipPath id="a"><path fill="#fff" d="M0 0h512v512H0z"/></clipPath></defs></svg>
